src/extras-openmoji/emergency/E0A1.svg

<svg id="emoji" viewBox="0 0 72 72" xmlns="http://www.w3.org/2000/svg">
  <g id="grid">
    <path fill="#b3b3b3" d="M68,4V68H4V4H68m4-4H0V72H72V0Z"/>
    <path fill="none" stroke="#00a5ff" stroke-miterlimit="10" stroke-width="0.1" d="M12.923,10.9583H59.0769A1.9231,1.9231,0,0,1,61,12.8814V59.0352a1.9231,1.9231,0,0,1-1.9231,1.9231H12.9231A1.9231,1.9231,0,0,1,11,59.0352V12.8813A1.923,1.923,0,0,1,12.923,10.9583Z"/>
    <rect x="16" y="4" rx="2.2537" ry="2.2537" width="40" height="64" fill="none" stroke="#00a5ff" stroke-miterlimit="10" stroke-width="0.1"/>
    <rect x="16" y="4" rx="2.2537" ry="2.2537" width="40" height="64" transform="translate(72) rotate(90)" fill="none" stroke="#00a5ff" stroke-miterlimit="10" stroke-width="0.1"/>
    <circle cx="36" cy="36" r="29" fill="none" stroke="#00a5ff" stroke-miterlimit="10" stroke-width="0.1"/>
  </g>
  <g id="color">
    <circle cx="35.9393" cy="29.2806" r="3.15" fill="#3f3f3f"/>
    <polyline fill="#d0cfce" points="46.439 64.56 36.838 32.3 35.041 32.3 25.439 64.56"/>
  </g>
  <g id="line">
    <path fill="none" stroke="#000" stroke-linecap="round" stroke-miterlimit="10" stroke-width="2" d="M18.8627,46.3572a24.1519,24.1519,0,0,1-1.7821-32.1636"/>
    <path fill="none" stroke="#000" stroke-linecap="round" stroke-miterlimit="10" stroke-width="2" d="M54.798,14.1936a24.1519,24.1519,0,0,1-1.7821,32.1636"/>
    <path fill="none" stroke="#000" stroke-linecap="round" stroke-miterlimit="10" stroke-width="2" d="M48.2384,19.4412a15.7512,15.7512,0,0,1-1.1622,20.9763"/>
    <path fill="none" stroke="#000" stroke-linecap="round" stroke-miterlimit="10" stroke-width="2" d="M24.8024,40.4175A15.7511,15.7511,0,0,1,23.64,19.4413"/>
    <circle cx="35.9393" cy="29.2806" r="3.15" fill="none" stroke="#000" stroke-miterlimit="10" stroke-width="2"/>
    <line x1="28.5893" x2="43.2893" y1="55.4773" y2="55.4773" stroke="#000" stroke-linecap="round" stroke-linejoin="round" stroke-width="2"/>
    <line x1="31.7393" x2="40.1393" y1="43.6128" y2="43.6128" stroke="#000" stroke-linecap="round" stroke-linejoin="round" stroke-width="2"/>
    <line x1="35.0407" x2="25.4393" y1="32.2999" y2="64.5596" fill="none" stroke="#000" stroke-linecap="round" stroke-linejoin="round" stroke-width="2"/>
    <line x1="46.4393" x2="36.838" y1="64.5596" y2="32.3001" fill="none" stroke="#000" stroke-linecap="round" stroke-linejoin="round" stroke-width="2"/>
  </g>
</svg>

<svg viewBox="0 0 72 72" xmlns="http://www.w3.org/2000/svg"><path fill="#b3b3b3" d="M68 4v64H4V4h64m4-4H0v72h72V0z"/><path fill="none" stroke="#00a5ff" stroke-miterlimit="10" stroke-width=".1" d="M12.923 10.958h46.154A1.923 1.923 0 0161 12.881v46.154a1.923 1.923 0 01-1.923 1.923H12.923A1.923 1.923 0 0111 59.035V12.881a1.923 1.923 0 011.923-1.923z"/><rect x="16" y="4" rx="2.254" ry="2.254" width="40" height="64" fill="none" stroke="#00a5ff" stroke-miterlimit="10" stroke-width=".1"/><rect x="16" y="4" rx="2.254" ry="2.254" width="40" height="64" transform="rotate(90 36 36)" fill="none" stroke="#00a5ff" stroke-miterlimit="10" stroke-width=".1"/><circle cx="36" cy="36" r="29" fill="none" stroke="#00a5ff" stroke-miterlimit="10" stroke-width=".1"/><g stroke-linecap="round" stroke-miterlimit="10" stroke-width="6" stroke="#fff" fill="none" stroke-linejoin="round"><path d="M18.863 46.357a24.152 24.152 0 01-1.782-32.163m37.717 0a24.152 24.152 0 01-1.782 32.163m-4.778-26.916a15.751 15.751 0 01-1.162 20.976m-22.274 0a15.751 15.751 0 01-1.162-20.976"/><circle cx="35.939" cy="29.281" r="3.15"/><path d="M28.589 55.477h14.7m-11.55-11.864h8.4M35.041 32.3l-9.602 32.26m21 0L36.838 32.3"/></g><circle cx="35.939" cy="29.281" r="3.15" fill="#3f3f3f"/><path fill="#d0cfce" d="M46.439 64.56L36.838 32.3h-1.797l-9.602 32.26"/><g stroke="#000" stroke-width="2"><path fill="none" stroke-linecap="round" stroke-miterlimit="10" d="M18.863 46.357a24.152 24.152 0 01-1.782-32.163m37.717 0a24.152 24.152 0 01-1.782 32.163m-4.778-26.916a15.751 15.751 0 01-1.162 20.976m-22.274 0a15.751 15.751 0 01-1.162-20.976"/><circle cx="35.939" cy="29.281" r="3.15" fill="none" stroke-miterlimit="10"/><path stroke-linecap="round" stroke-linejoin="round" d="M28.589 55.477h14.7m-11.55-11.864h8.4"/><path fill="none" stroke-linecap="round" stroke-linejoin="round" d="M35.041 32.3l-9.602 32.26m21 0L36.838 32.3"/></g></svg>
